X: 1
T: Dearest My Own One
R: waltz
Z: 2012 John Chambers <jc:trillian.mit.edu>
S: handwritten MS from Rich Armstrong
N: Note: 3- and 6-bar phrases.
M: 3/4
L: 1/4
K: G
D |\
"G"DEG | B3 | "C"A2B |\
AGE | "G"D3 | D2B |\
"C"cde | "G"d3 | "Em"B2G |\
"A7"EFG | "D7"A3 | A2d |
"G"de>d | B3 | G2B |\
"C"AGE | "G"D2D | D2B |\
"C"cde | "G"d3 | B2G |\
[1 "D7"ABA | "G"G3 | G3 :|
["last time" "D7"A/B/ c/d/ e/f/ | "G"g3 | g2 |]\
y3 y3 y3 y3 y3 y3 y3 y3 y3
